X: 4302
T: Bodmin Riding
R: barndance
M: 4/4
K: Dmajor
|:A2|d2 d2 d2 d2|dc de dc de|f2 f2 f2 f2|fe fg fe fg|
a2 a2 a2 ba|g2 g2 g2 ag|fe de g2 f2|e6:|
|:cd|e3e e3e|ed cB A2 fg|a3a a3a|ag fe d2 ag|
f2 e2 d2 ag|f2 e2 d2 ag|fg fd ef ec|d2 d2 d2:|

